X:19
T:Bold trooper - Fone
%%VWML:SBG-1-2--0
F:http://www.vwml.org/record/SBG/1/2/
Z:Original Sibelius transcriptions by M. & S. Graebe
M:3/4
I:linebreak $
K:C
V:1 treble nm="P1"
V:1
 (3G/A/B/ | c d c | c E F | G A G | E2 G | c c c | A d c | B A B | c2 c | e c e |$ e f g | f e f | %12
 d2 e/f/ | e d c | B A G | g2 f | e3/2 d/ c | d c B | c2 x | %19

